!!!OTL: Ein Lied von den gruenen Sommervoegeln.
!!!OTL-incipit:ES KAMEN GRUENE VOEGELEIN
!!!COM: J. Gersbach
!!!ARE: Europa, Mitteleuropa, Deutschland
!!!SCT: F0273
!!!TXL: @@DE
!!!YEM: Copyright 1995, estate of Helmut Schaffrath.
**kern	**text
*ICvox	*
*Ivox	*
*clefG2	*
*M2/4	*
*k[f#c#]	*
*D:	*
!LO:TX:a:t=Ziemlich geschwind.	!
!LO:TX:a:t=P:only the highest voice encoded:problem	!
{8a	1._Es
=1	=1
8.f#	kamen
16e	.
8f#	grüne
8g	.
=2	=2
8.a	Vö-
16b/	-gelein
8a}	.
{8a	ge-
=3	=3
8.b/	-flo-
16cc#/	-gen
8dd/	her
8ee/	vom
=4	=4
4dd/	Himmel,
8a}	.
{8a	und
=5	=5
8.f#	ſetʒ-
16e	-ten
8f#	ſich
8g	im
=6	=6
8.a	Sonnenſchein
16b/	.
8a}	.
{8a	in
=7	=7
8.b/	fröh-
16cc#/	-li-
8dd/	-chem
8ee/	Ge-
=8	=8
4dd/	-wim-
8a}	-mel
{8ff#	all'
=9	=9
8.ee	an
16dd	des
8cc#	Baumes
8b/	.
=10	=10
4cc#	Ae-
8a}	-ſte,
{8dd	und
=11	=11
8.cc#/	ſa-
16b/	-ßen
8a	da
8g#	ſo
=12	=12
4a	fe-
8e}	-ſte,
{8g	als
=13	=13
(8f#L	ob
8gJ)	.
(8f#L	ſie
8gJ)	.
=14	=14
(8aL	an-
8bJ)	.
(8cc#L}	-ge-
{8ddJ)	.
=15	=15
4ee	-wach-
4cc#	-ſen
=16	=16
4dd/	ſein.
8r}	.
==	==
!!!AGN: Jugend - Lied, Jahreszeiten, Sommer, Herbst
!!!ONB: ESAC (Essen Associative Code) Database: FINK
!!!AMT: simple duple
!!!AIN: vox
!!!EED: Helmut Schaffrath
!!!EEV: 1.0
!!!GTL: Jugendlieder
!!Text: L. Uhland
!!!source: Musikalischer Hausschatz der Deutschen. Eine Sammlung von über 1000 Liedern und Gesängen mit Singstimmen und Klavierbegleitung. Leipzig, Litterarisches Verlags-Haus.
!!!page: 163
!!!URL-scan: https://www.digitale-sammlungen.de/en/view/bsb11144622?page=160,161
!!!ENC: Anna Maria Matuszewska
!!!EEV: 2024/30/07
*-	*-
